floor-lamp.svg

<svg fill="currentColor" viewBox="0 0 24 24"><path d="m15 2 2 7H7l2-7m2 8h2v10h3v2H8v-2h3z"/></svg>

<svg  viewBox="0 0 24 24" fill="currentColor"><path  d="M15,2L17,9H7L9,2M11,10H13V20H16V22H8V20H11V10Z"/></svg>
